X: 74
T:Rou's Frard
% Nottingham Music Database
Y:AABe
S:Andertin Blond
M:4/4
L:1/8
R:Hornpipe
K:D
P:A
BA|"D"F2A2 "G"BAGA|"C"e2e2 "C"e2ec|
"C"e2ef e2ec|"C"e2a2 "A7"c2a2|"D"d2d2 d2ed|
"G"B2B2 d2^dc|"C"eeag "C"g2ed|"Em"GBcB "A"ABAF|
"D"AdBA FAAA|"G"G2B2 B2d2:|
P:A
cd|"A7"cBcd "D"d2A2|"D"ABA2 A2d2|"D"(3fefed "A"c2AB||"D"AdcB "G"G2E||
